X:1
T:Allein zu Dir, 87.87.88.48
T:Allein zu Dir, 87.87.88.48
T:Nuremburg, German
T:Public Domain Courtesy of the Cyber Hymnal™
C:Nuremburg, German
Z:Public Domain
Z:Courtesy of the Cyber Hymnal™
%%score ( 1 2 ) ( 3 4 )
L:1/8
Q:1/4=115
M:4/4
K:A
V:1 treble 
V:2 treble 
V:3 bass 
V:4 bass 
V:1
 [CA]2 | [CE]2 [DF]2 [EA]2 [Ec]2 | ([EB]2 A4) [EG]2 | [EA]6 [Ec]2 | [EB]2 [CA]2 [CG]2 [CE]2 | %5
 [DF]2 (B2 A2 G2) x | [CF]6 [CA]2 | [CE]2 [DF]2 [EA]2 [Ec]2 | ([EB]2 A4) [EG]2 | [EA]6 [Ec]2 | %10
 [EB]2 [CA]2 [CG]2 [CE]2 | [DF]2 (B2 A2 G2) x | [CF]6 [Fc]2 | [Fd]2 [EB]2 [Ec]2 [CA]2 | %14
 [FB]2 [Ec]2 [^DF]2 [Fc]2 | [Fd]2 [EB]2 [Ec]2 [CA]2 | [FB]2 [Ec]2 [^DF]4 | z2 [EA]2 [EG]2 [CF]2 | %18
 [CE]2 [CF]2 [B,D]2 [G,D]2 | [^A,C]6 [=A,F]2 | ([B,E]2 A4) [DG]2 | [CA]6 E2 | %22
 [^DF]2 [^EG]2 [FA]2 [=Ec]2 | (B2 A2) G4 | [CF]6 |] %25
V:2
 x2 | x8 | x2 (C2 ^D2) x2 | x8 | x8 | x2 F4 (F^E) x | x8 | x8 | x2 (C2 ^D2) x2 | x8 | x8 | %11
 x2 F4 (F^E) x | x8 | x8 | x8 | x8 | x8 | x8 | x8 | x8 | x2 (E2 D2) x2 | x6 E2 | x8 | F4 (F2 ^E2) | %24
 x6 |] %25
V:3
 [F,,F,]2 | [C,G,]2 [B,,B,]2 [A,,C]2 [A,,A,]2 | ([E,G,]2 [F,A,]4) [E,B,]2 | [A,,C]6 [A,,A,]2 | %4
 [E,G,]2 F,2 [C,E,]2 [C,G,]2 | [B,,B,]2 ([G,,D]2 C3) (z B,) | [F,,^A,]6 [F,,F,]2 | %7
 [C,G,]2 [B,,B,]2 [A,,C]2 [A,,A,]2 | [E,G,]2 ([F,A,]4 [E,B,]2) | [A,,C]6 [A,,A,]2 | %10
 [E,G,]2 F,2 [C,E,]2 [C,G,]2 | [B,,B,]2 ([G,,D]2 C3) (z B,) | [F,,^A,]6 [F,=A,]2 | %13
 [B,,B,]2 [E,G,]2 [A,,A,]2 [F,A,]2 | [D,F,]2 [^A,,F,]2 [B,,B,]2 [F,=A,]2 | %15
 [B,,B,]2 [E,G,]2 [A,,A,]2 [F,A,]2 | [D,F,]2 [^A,,F,]2 [B,,B,]4 | z2 [A,,C]2 [E,B,]2 [F,A,]2 | %18
 [C,G,]2 [^A,,F,]2 [B,,F,]2 [B,,F,]2 | [F,,F,]6 [D,F,]2 | ([D,G,]2 [C,A,]2 [B,,F,]2) [B,,E,]2 | %21
 [A,,E,]6 [A,C]2 | [A,B,]2 [G,B,]2 [F,C]2 [C,A,]2 | (A,B, [C,C]2) [^B,,^D]2 (C=B,) | [F,,^A,]6 |] %25
V:4
 x2 | x8 | x8 | x8 | x2 F,2 x4 | x4 A,,B,, C,2 x | x8 | x8 | x8 | x8 | x2 F,2 x4 | %11
 x4 A,,B,, C,2 x | x8 | x8 | x8 | x8 | x8 | x8 | x8 | x8 | x8 | x8 | x8 | ^D,2 x3 C,2 x | x6 |] %25

